frontend/src/assets/checked.svg

<svg width="34" height="34" viewBox="0 0 34 34" fill="none" xmlns="http://www.w3.org/2000/svg">
<path d="M15.0167 22.95L25.0042 12.9625L23.0208 10.9792L15.0167 18.9833L10.9792 14.9458L8.99583 16.9292L15.0167 22.95ZM7.08333 29.75C6.30417 29.75 5.63715 29.4726 5.08229 28.9177C4.52743 28.3628 4.25 27.6958 4.25 26.9167V7.08333C4.25 6.30417 4.52743 5.63715 5.08229 5.08229C5.63715 4.52743 6.30417 4.25 7.08333 4.25H26.9167C27.6958 4.25 28.3628 4.52743 28.9177 5.08229C29.4726 5.63715 29.75 6.30417 29.75 7.08333V26.9167C29.75 27.6958 29.4726 28.3628 28.9177 28.9177C28.3628 29.4726 27.6958 29.75 26.9167 29.75H7.08333Z" fill="#7361DF"/>
</svg>

<svg xmlns="http://www.w3.org/2000/svg" width="34" height="34" fill="none"><path fill="#7361DF" d="m15.017 22.95 9.987-9.987-1.983-1.984-8.004 8.004-4.038-4.037-1.983 1.983zm-7.934 6.8q-1.169 0-2-.832a2.73 2.73 0 0 1-.833-2.001V7.083q0-1.169.832-2a2.73 2.73 0 0 1 2.001-.833h19.834q1.169 0 2 .832.834.832.833 2.001v19.834q0 1.169-.832 2a2.73 2.73 0 0 1-2.001.833z"/></svg>
